components/ui-node-icon/src/groupBy/groupBy.small.svg

<svg width="16" height="16" viewBox="0 0 16 16" fill="none" xmlns="http://www.w3.org/2000/svg">
  <path fill-rule="evenodd" clip-rule="evenodd" d="M3 3H13V6H3V5.5V3ZM13 7H3V10.5C3 10.7761 3.22386 11 3.5 11H5V9C5 8.44772 5.44772 8 6 8H13C13.5523 8 14 8.44772 14 9V11V12V14C14 14.5523 13.5523 15 13 15H6C5.44772 15 5 14.5523 5 14V12H3.5C2.67157 12 2 11.3284 2 10.5V6V5.5V3C2 2.44772 2.44772 2 3 2H13C13.5523 2 14 2.44772 14 3V6C14 6.55229 13.5523 7 13 7ZM13 11V9H6V11H13ZM13 12V14H6V12H13Z" fill="currentColor"/>
</svg>

<svg xmlns="http://www.w3.org/2000/svg" width="16" height="16" fill="none" viewBox="0 0 16 16">
  <path fill="currentColor" fill-rule="evenodd" d="M3 3h10v3H3V3Zm10 4H3v3.5a.5.5 0 0 0 .5.5H5V9a1 1 0 0 1 1-1h7a1 1 0 0 1 1 1v5a1 1 0 0 1-1 1H6a1 1 0 0 1-1-1v-2H3.5A1.5 1.5 0 0 1 2 10.5V3a1 1 0 0 1 1-1h10a1 1 0 0 1 1 1v3a1 1 0 0 1-1 1Zm0 4V9H6v2h7Zm0 1v2H6v-2h7Z" clip-rule="evenodd"/>
</svg>
